X:1
T:Title
%%score { ( 1 4 5 ) | ( 2 3 ) }
L:1/8
Q:1/4=110
M:4/4
K:D
V:1 treble nm="Grand Piano"
V:4 treble 
V:5 treble 
V:2 bass 
V:3 bass 
V:1
 [Fd]2 [Gc]2 [Ad]2 B2 | A2 G2 F2 z2 | [CE]2 [DF]2 [EG]2 [CE]2 | [DF]2 [CG]2 [DA]2 z2 | %4
w: J.~H.~Hall * * *||||
 [Fd]2 [Gc]2 [Ad]2 [DGB]2 | [DFA]2 [A,EG]2 [A,DF]2 [DFA]2 | .[DF]2 z2 z4[K:bass] | [F,D]6 z2 | %8
w: ||||
 [FA]6 z2 | [CG]6 z2 | [EG]6 z2 | [DF]6 z2 | [Fd]2 [Gc]2 [Ad]2 [DGB]2 | %13
w: |||||
 [DFA]2 [A,EG]2 [A,DF]2 [DFA]2 | .[DF]2 z2 z4[K:bass] | D6 z2 |] %16
w: |||
V:2
 [D,A,]2 [E,A,]2 [F,A,]2 [G,D]2 | [F,D]2 A,2- [D,A,D]2 z2 | [A,,A,]2 [A,,A,]2 [A,,A,]2 [A,,A,]2 | %3
 D,2 E,2 F,2 z2 | [D,A,]2 [E,A,]2 [F,A,]2 G,2 | A,2 A,,2 D,2 D,2 | D,E,F,G, A,2 A,,2 | D,6 z2 | %8
 D,2 D,2 z D [D,A,]2 | [E,A,]2 E,2 E,2 z2 | A,,2 A,,2 z C [A,,A,]2 | [D,A,]2 D,2 D,2 z2 | %12
 [D,A,]2 [E,A,]2 [F,A,]2 G,2 | A,2 A,,2 D,2 D,2 | D,E,F,G, A,2 A,,2 | z2 G,G, F,2 z2 |] %16
V:3
 x8 | z2 [E,C]2 z4 | x8 | x8 | x8 | x8 | x8 | x8 | z4 D,2 z2 | x8 | z4 A,,2 z2 | x8 | x8 | x8 | %14
 x8 | D,6 z2 |] %16
V:4
 x8 | x8 | x8 | A,6 z2 | x8 | x8 | A-[CEA-][DA][DB] [DF]2[K:bass] [G,CE]2 | x8 | D2 D2 DF[FB][DF] | %9
 z2 A,2 A,2 z2 | [A,C]2 [A,C]2 z E[EA][CE] | z2 A,2 A,2 z2 | x8 | x8 | %14
 A-[CEA-][DA][DB] [DF]2[K:bass] [G,CE]2 | F,2 B,B, A,2 z2 |] %16
V:5
 x8 | x8 | x8 | x8 | x8 | x8 | x6[K:bass] x2 | x8 | x8 | x8 | z4 A,2 z2 | x8 | x8 | x8 | %14
 x6[K:bass] x2 | x8 |] %16

